X:5
T:IVY LEAF -- REEL.
R:reel
C:ZEKE BACKUS.
B:Coles
Z:John Walsh <walsh:mat:h.ubc.ca>
Z:A *different* tune from the usual Ivy Leaf (O'Neill's DMI 622)
M:2/4
L:1/16
K:D
((3uABc)|dcde fdAF|GFGA BGE2|efge cd"4"ec|defd .A2((3uABc)|\
dcde fdAF|GFGA BGE2|efge cded|cABc d2:|
|:ue|{g}fefg afd2|{a}vgfga bge2|vfgaf defd|caBe A2(gf)|\
{a}fefg afd2|{a}gfga  bg((3efg)|afge fd"4"ec|Agfe d2:|
